packages/gestalt-icons-android/vr-theme/ic_vr_rewind_gestalt.svg

<svg width="24" height="24" viewBox="0 0 24 24" fill="none" xmlns="http://www.w3.org/2000/svg">
<path d="M22 4.9902V19.0098C22 19.8072 21.186 20.2764 20.5901 19.8225L11.387 12.8127C10.871 12.4197 10.871 11.5803 11.387 11.1873L20.5901 4.17747C21.186 3.72359 22 4.19282 22 4.9902Z" fill="black"/>
<path d="M9.59013 4.17747C10.186 3.72359 11 4.19282 11 4.9902V19.0098C11 19.8072 10.186 20.2764 9.59013 19.8225L0.387046 12.8127C-0.129016 12.4197 -0.129016 11.5803 0.387048 11.1873L9.59013 4.17747Z" fill="black"/>
</svg>

<svg xmlns="http://www.w3.org/2000/svg" width="24" height="24"><path d="M22 4.99v14.02c0 .8-.81 1.27-1.41.81l-9.2-7a1.05 1.05 0 0 1 0-1.63l9.2-7.01c.6-.46 1.41.01 1.41.81M9.59 4.18c.6-.46 1.41.01 1.41.81v14.02c0 .8-.81 1.27-1.41.81l-9.2-7a1.05 1.05 0 0 1 0-1.63z"/></svg>
